src/16/panel/fluxgui-light.svg

<svg xmlns="http://www.w3.org/2000/svg" width="16" height="16" version="1.1">
 <defs>
  <style id="current-color-scheme" type="text/css">
   .ColorScheme-Text { color:#bebebe; } .ColorScheme-Highlight { color:#5294e2; }
  </style>
 </defs>
 <path style="fill:currentColor" class="ColorScheme-Text" d="M 10 4 A 1 1 0 0 0 9 5 A 1 1 0 0 0 10 6 A 1 1 0 0 0 11 5 A 1 1 0 0 0 10 4 z M 6.4433594 9.0097656 C 5.8483594 8.9922656 5.2096094 9.1146094 4.4746094 9.4121094 C 3.6783594 9.7358594 2.7579687 10.213672 1.6992188 11.044922 C 2.8717188 13.459922 5.31375 15 8 15 C 10.03875 15 11.971719 14.116172 13.292969 12.576172 C 11.192969 11.394922 9.6621875 10.068359 8.1484375 9.4121094 C 7.5884375 9.1758594 7.0383594 9.0185156 6.4433594 9.0097656 z"/>
 <path style="opacity:0.3;fill:currentColor" class="ColorScheme-Text" d="M 8 1 C 4.1325 1 1 4.1325 1 8 C 1 8.74375 1.123125 9.47875 1.359375 10.1875 C 2.383125 9.39125 3.291875 8.8480469 4.140625 8.4980469 C 4.971875 8.1655469 5.7425 8.0254687 6.46875 8.0429688 C 7.18625 8.0604688 7.8602344 8.2365625 8.4902344 8.5078125 C 10.257734 9.2690625 11.797187 10.713125 13.835938 11.859375 C 14.597188 10.713125 15 9.37375 15 8 C 15 4.1325 11.8675 1 8 1 z M 10 3 A 2 2 0 0 1 12 5 A 2 2 0 0 1 10 7 A 2 2 0 0 1 8 5 A 2 2 0 0 1 10 3 z"/>
</svg>

<svg xmlns="http://www.w3.org/2000/svg" width="16" height="16"><defs><style id="current-color-scheme" type="text/css">.ColorScheme-Text{color:#bebebe}</style></defs><path class="ColorScheme-Text" d="M10 4a1 1 0 0 0-1 1 1 1 0 0 0 1 1 1 1 0 0 0 1-1 1 1 0 0 0-1-1zM6.443 9.01c-.595-.018-1.233.105-1.968.402-.797.324-1.717.802-2.776 1.633A7.007 7.007 0 0 0 8 15a6.968 6.968 0 0 0 5.293-2.424c-2.1-1.181-3.63-2.508-5.145-3.164-.56-.236-1.11-.393-1.705-.402z" fill="currentColor"/><path class="ColorScheme-Text" d="M8 1C4.133 1 1 4.133 1 8c0 .744.123 1.479.36 2.188 1.023-.797 1.932-1.34 2.78-1.69.832-.332 1.603-.473 2.329-.455a5.423 5.423 0 0 1 2.021.465c1.768.761 3.307 2.205 5.346 3.351A6.998 6.998 0 0 0 8 1zm2 2a2 2 0 0 1 2 2 2 2 0 0 1-2 2 2 2 0 0 1-2-2 2 2 0 0 1 2-2z" opacity=".3" fill="currentColor"/></svg>
